X: 637
T: Hawkins' Rag
C:Ted Hawkins
B: jims roots
M:4/4
L:1/8
Q: 1/4=100
K:C
V:1 
%S:Fiddle-icious 2015 (Don Roy)
xe fg | "C"g^fg(a g2)e2 | g^fg(a g2)e2 | "D"dcA(d cA)dc  | A2 A2 A2> A2 |
"G"BAB(c d2>)(A2 | BA)Bc d2>B2 | "C"c2 c2 d2 ^d2 | "G"e2 e2 f2 ^f2 ||
"C"g^fg(a g2)e2 | g^fg(a g2)e2 | "D"dcA(d cA)dc  | A2 A2 A2>(B2 |
"F"c2)c2 "A7"d2 ^d2 | "C"e^d (e "A"a2) (ge2) | "D"de2 "G"g2 (ed2)  | "C"c2 c2 c2 BA  ||
"G"BB[Bg]B B[Ba]BB | [Bb]BB[Ba] BB[Bg]B | "C"EE[Ec]E E[Ed]EE | [Ee]EE[Ed] EE[Ec]E |
"G"BB[Bg]B B[Ba]BB | [Bb]BB[Ba] BB[Bg]B | "C""STOP"(cB)c2 (e^d)e2 | (g^f)g c'2 A2 ||
"G"BB[Bg]B B[Ba]BB | [Bb]BB[Ba] BB[Bg]B | "C"EE[Ec]E E[Ed]EE | [Ee]EE[Ed] EE[Ec]E |
"F"A2 A(B "A7"c2)c(d | "C"e)(^d "A"e)a2 (ge2) | "D"de2"G"g2 (ed2) | "C"[c2e2] z2 [c2e2] "D.C."z2  |]
"F"A,2 A,(B,"A7"C2) C(D | "C"E)(^D "A"E)A2 (GE2) | "D"de2"G"g2 (ed2)  | "C"[c2e2] z2 [c2e2]  z2  |]
% abcbook-tune_id 6298c25ddd2f72cc28d7f4c1


% abcbook-boost 0
% abcbook-tablature 
% abcbook-transpose 
% abcbook-lastupdated 1654178398663
% abcbook-soundfonts 
% abcbook-repeats 1


